www/assets/images/test_icons/flags/SG.svg

<svg fill="none" height="15" viewBox="0 0 21 15" width="21" xmlns="http://www.w3.org/2000/svg" xmlns:xlink="http://www.w3.org/1999/xlink"><mask id="a" height="15" maskUnits="userSpaceOnUse" width="21" x="0" y="0"><path d="m19 0h-17c-1.10457 0-2 .89543-2 2v11c0 1.1046.89543 2 2 2h17c1.1046 0 2-.8954 2-2v-11c0-1.10457-.8954-2-2-2z" fill="#fff"/></mask><g mask="url(#a)"><path d="m19 0h-17c-1.10457 0-2 .89543-2 2v11c0 1.1046.89543 2 2 2h17c1.1046 0 2-.8954 2-2v-11c0-1.10457-.8954-2-2-2z" fill="#fff"/><path clip-rule="evenodd" d="m0 0h21v9h-21z" fill="#ef2f41" fill-rule="evenodd"/><path clip-rule="evenodd" d="m6 7.863c-.29.09-.6.137-.923.137-1.7 0-3.077-1.343-3.077-3s1.378-3 3.077-3c.322 0 .632.048.923.137-1.248.383-2.154 1.52-2.154 2.863s.906 2.48 2.154 2.863zm2-4.863h1v1h-1zm2 1h1v1h-1zm-1 2h1v1h-1zm-3-2h1v1h-1zm1 2h1v1h-1z" fill="#fff" fill-rule="evenodd"/><path d="m19 .5h-17c-.82843 0-1.5.67157-1.5 1.5v11c0 .8284.67157 1.5 1.5 1.5h17c.8284 0 1.5-.6716 1.5-1.5v-11c0-.82843-.6716-1.5-1.5-1.5z" stroke="#000" stroke-opacity=".1"/></g></svg>

<svg width="21" height="15" viewBox="0 0 21 15" fill="none" xmlns="http://www.w3.org/2000/svg">
<mask id="mask0_3_46" style="mask-type:alpha" maskUnits="userSpaceOnUse" x="0" y="0" width="21" height="15">
<path d="M19 0H2C0.89543 0 0 0.89543 0 2V13C0 14.1046 0.89543 15 2 15H19C20.1046 15 21 14.1046 21 13V2C21 0.89543 20.1046 0 19 0Z" fill="white"/>
</mask>
<g mask="url(#mask0_3_46)">
<path d="M19 0H2C0.89543 0 0 0.89543 0 2V13C0 14.1046 0.89543 15 2 15H19C20.1046 15 21 14.1046 21 13V2C21 0.89543 20.1046 0 19 0Z" fill="white"/>
<path fill-rule="evenodd" clip-rule="evenodd" d="M0 0H21V9H0V0Z" fill="#EF2F41"/>
<path fill-rule="evenodd" clip-rule="evenodd" d="M6 7.863C5.71 7.953 5.4 8 5.077 8C3.377 8 2 6.657 2 5C2 3.343 3.378 2 5.077 2C5.399 2 5.709 2.048 6 2.137C4.752 2.52 3.846 3.657 3.846 5C3.846 6.343 4.752 7.48 6 7.863ZM8 3H9V4H8V3ZM10 4H11V5H10V4ZM9 6H10V7H9V6ZM6 4H7V5H6V4ZM7 6H8V7H7V6Z" fill="white"/>
<path d="M19 0.5H2C1.17157 0.5 0.5 1.17157 0.5 2V13C0.5 13.8284 1.17157 14.5 2 14.5H19C19.8284 14.5 20.5 13.8284 20.5 13V2C20.5 1.17157 19.8284 0.5 19 0.5Z" stroke="black" stroke-opacity="0.1"/>
</g>
</svg>
